!!!OTL: 212. Trallerstueckchen im Fruehling.
!!!ODT: 1880 (um)
!!!ARE: Europa, Mitteleuropa, Deutschland, Westfalen, Engste
!!!SCT: B0212
!!!TXL: @@DE
!!!YEM: Copyright 1995, estate of Helmut Schaffrath.
**kern	**text
*ICvox	*
*Ivox	*
*clefG2	*
*M3/4	*
*k[f#c#]	*
*D:	*
!LO:TX:a:t=Gemächlich.	!
{8a	Wenn
8a	der
=1	=1
8f#	Früh-
8f#	-ling
4d	kommt,
8a	von
8a	den
=2	=2
8g	Ber-
8g	-gen
4e}	ſchaut,
{8a	wenn
8a	der
=3	=3
8ee	Schnee
8dd	im
8cc#	Thal
8b	und
8a	von
8g	den
=4	=4
8f#	Hü-
8a	-geln
4dd}	thaut;
{8a	Tri-
8a	-o-
=5	=5
8f#	-li-
8f#	-a-
4d	-la,
8a	tri-
8a	-a-
=6	=6
8g	-li-
8g	-a-
4e}	-la
{8a	tri-
8a	-a-
=7	=7
8ee	-li-
8dd	-a
8cc#	li-
8b	-a
8a	li-
8g	-a
=8	=8
8f#	li-
8a	-a-
4dd}	-lo,
{8a	wenn
8a	die
=9	=9
8f#	Fin-
8f#	-ken
8d	ſchla-
8d	-gen
8dd	und
8dd	ʒu
=10	=10
8b	Ne-
8b	-ſte
8g	tra-
8g}	-gen,
{8e	dann
8e	be-
=11	=11
8.cc#	-ginnt
16b	die
8a	lie-
8a	-be
8g	Som-
8c#	-mer-
=12	=12
2d}	-ʒeit.
==	==
!!!AGN: Jahreszeiten - Lied, Fruehling
!!!GTL: Jahreszeitenlieder
!!!ONB: ESAC (Essen Associative Code) Database: BOEHME
!!!AMT: simple triple
!!!AIN: vox
!!!EED: Helmut Schaffrath
!!!EEV: 1.0
!!Aus Eng2te (Westfalen) um 1880.
!!!URL-scan: https://archive.org/details/BoehmeVtLieder1895/page/n195/mode/2up
!!!ENC: Anna Maria Matuszewska
!!!EEV: 2024/24/06
*-	*-
